assets/svg/icon-ui-redpoint-bell-white.svg

<?xml version="1.0" encoding="UTF-8" standalone="no"?>
<svg width="32px" height="32px" viewBox="0 0 32 32" version="1.1" xmlns="http://www.w3.org/2000/svg" xmlns:xlink="http://www.w3.org/1999/xlink">
    <!-- Generator: Sketch 3.8.3 (29802) - http://www.bohemiancoding.com/sketch -->
    <title>white/icon-ui-redpoint-bell-white</title>
    <desc>Created with Sketch.</desc>
    <defs></defs>
    <g id="white" stroke="none" stroke-width="1" fill="none" fill-rule="evenodd">
        <g id="icons,-utility-white" transform="translate(-405.000000, -633.000000)" fill="#FFFFFF">
            <g id="white/icon-ui-redpoint-bell-white" transform="translate(405.000000, 633.000000)">
                <g id="icon-redpoint-bell">
                    <g id="PaaS">
                        <g id="bearings_v1.1_2015-11-13_Kris">
                            <g id="Steps">
                                <path d="M16,32 C24.8365556,32 32,24.8365556 32,16 C32,7.16344444 24.8365556,0 16,0 C7.16344444,0 0,7.16344444 0,16 C0,24.8365556 7.16344444,32 16,32 L16,32 Z M16,31.1111111 C24.3456364,31.1111111 31.1111111,24.3456364 31.1111111,16 C31.1111111,7.65436356 24.3456364,0.888888889 16,0.888888889 C7.65436356,0.888888889 0.888888889,7.65436356 0.888888889,16 C0.888888889,24.3456364 7.65436356,31.1111111 16,31.1111111 L16,31.1111111 Z M21.6962444,19.7953813 C21.7169644,19.6296213 21.7169644,19.4638613 21.7169644,19.2773813 L21.7169644,14.9676169 C21.7169644,12.5226542 20.1422427,10.4299324 17.9666409,9.66329156 C18.0080809,9.49753156 18.0288009,9.31105067 18.0288009,9.12457067 C18.0288009,8.04712978 17.15856,7.17688889 16.0811191,7.17688889 C15.0036782,7.17688889 14.1334373,8.04712978 14.1334373,9.12457067 C14.1334373,9.31105067 14.1541573,9.49753156 14.2163173,9.66329156 C12.0199947,10.4299324 10.4659929,12.5226542 10.4659929,14.9676169 L10.4659929,19.2773813 C10.4659929,19.4638613 10.4659929,19.6296213 10.4867129,19.7953813 L8.31111111,21.908824 C8.31111111,22.364664 8.70479111,22.7583449 9.160632,22.7583449 L14.1541573,22.7583449 C14.1541573,22.8412249 14.1334373,22.9241049 14.1334373,23.0069849 C14.1334373,24.0844258 15.0036782,24.9546667 16.0811191,24.9546667 C17.15856,24.9546667 18.0288009,24.0844258 18.0288009,23.0069849 C18.0288009,22.9241049 18.0288009,22.8412249 18.0080809,22.7583449 L23.0223262,22.7583449 C23.4781662,22.7583449 23.8718471,22.364664 23.8718471,21.908824 L21.6962444,19.7953813 L21.6962444,19.7953813 Z M15.0036782,9.12457067 C15.0036782,8.52369067 15.4802382,8.04712978 16.0811191,8.04712978 C16.6819991,8.04712978 17.17928,8.52369067 17.17928,9.12457067 C17.17928,9.22817067 17.15856,9.33177067 17.11712,9.43537156 C16.7856,9.37321067 16.4333591,9.33177067 16.0811191,9.33177067 C15.7288782,9.33177067 15.3973582,9.37321067 15.0451182,9.43537156 C15.0243982,9.33177067 15.0036782,9.22817067 15.0036782,9.12457067 L15.0036782,9.12457067 Z" id="icon-redpoint-bell"></path>
                            </g>
                        </g>
                    </g>
                </g>
            </g>
        </g>
    </g>
</svg>

<svg width="32" height="32" viewBox="0 0 32 32" xmlns="http://www.w3.org/2000/svg"><title>white/icon-ui-redpoint-bell-white</title><path d="M16 32c8.837 0 16-7.163 16-16S24.837 0 16 0 0 7.163 0 16s7.163 16 16 16zm0-.889c8.346 0 15.111-6.765 15.111-15.111S24.346.889 16 .889.889 7.654.889 16 7.654 31.111 16 31.111zm5.696-11.316c.021-.165.021-.331.021-.518v-4.31a5.638 5.638 0 0 0-3.75-5.304c.041-.165.062-.352.062-.538 0-1.078-.87-1.948-1.948-1.948-1.077 0-1.948.87-1.948 1.948 0 .186.021.373.083.538a5.61 5.61 0 0 0-3.75 5.305v4.31c0 .186 0 .352.02.517L8.312 21.91c0 .456.394.85.85.85h4.993c0 .082-.02.165-.02.248 0 1.077.87 1.948 1.947 1.948 1.078 0 1.948-.87 1.948-1.948 0-.083 0-.166-.02-.249h5.013c.456 0 .85-.393.85-.85l-2.176-2.113zm-6.692-10.67c0-.601.476-1.078 1.077-1.078s1.098.477 1.098 1.078c0 .103-.02.207-.062.31a5.665 5.665 0 0 0-1.036-.103c-.352 0-.684.041-1.036.103-.02-.103-.041-.207-.041-.31z" fill="#FFF" fill-rule="evenodd"/></svg>
